X: 21081
T: Jutland
R: reel
M: 4/4
K: Amixolydian
fe|:ef B2 BBfe|dcBd d3 e|dcBc c3 f|f2 f2 f fe|
ef B2 BBfe|dcBd d3 e|dcBc c3 c|BA AB B2 B2 B2 B:|
((3def)|:g3 g fed2|f2((3edB) B2((3def)|g3 g fed2|f3 f ed|c2 c2 c2 c fe|
ef B2 BBfe|dcBd d3 e|dcBc c3 c|BA AB B2 B2:|

